icons/1_Primary/Better Uptime.svg

<svg width="1024" height="1024" viewBox="0 0 1024 1024" fill="none" xmlns="http://www.w3.org/2000/svg">
<g clip-path="url(#clip0_2_1584)">
<path d="M512 1024C794.77 1024 1024 794.77 1024 512C1024 229.23 794.77 0 512 0C229.23 0 0 229.23 0 512C0 794.77 229.23 1024 512 1024Z" fill="#54688C"/>
<path d="M674.789 479.81H510.479C499.091 479.81 488.169 484.334 480.116 492.387C472.063 500.439 467.539 511.361 467.539 522.75V725C467.539 765.43 518.309 783.45 543.799 752.08L708.109 549.83C730.909 521.77 710.939 479.81 674.789 479.81ZM439.249 522.75V548.45H346.849C312.679 548.45 293.849 508.8 315.349 482.27L486.999 271.07C511.099 241.41 559.079 258.45 559.079 296.66V451.53H510.479C491.596 451.551 473.492 459.061 460.139 472.412C446.786 485.764 439.273 503.867 439.249 522.75Z" fill="white"/>
</g>
<defs>
<clipPath id="clip0_2_1584">
<rect width="1024" height="1024" fill="white"/>
</clipPath>
</defs>
</svg>

<svg xmlns="http://www.w3.org/2000/svg" width="1024" height="1024" fill="none">
   <g clip-path="url(#a)">
      <path fill="#54688C" d="M512 1024c282.77 0 512-229.23 512-512S794.77 0 512 0 0 229.23 0 512s229.23 512 512 512Z"/>
      <path fill="#fff" d="M674.789 479.81h-164.31a42.94 42.94 0 0 0-42.94 42.94V725c0 40.43 50.77 58.45 76.26 27.08l164.31-202.25c22.8-28.06 2.83-70.02-33.32-70.02Zm-235.54 42.94v25.7h-92.4c-34.17 0-53-39.65-31.5-66.18l171.65-211.2c24.1-29.66 72.08-12.62 72.08 25.59v154.87h-48.6a71.31 71.31 0 0 0-71.23 71.22Z"/>
   </g>
   <defs>
      <clipPath id="a">
         <path fill="#fff" d="M0 0h1024v1024H0z"/>
      </clipPath>
   </defs>
</svg>
